src/icon.svg

<svg clip-rule="evenodd" fill-rule="evenodd" stroke-linejoin="round" stroke-miterlimit="1.41421" viewBox="0 0 464 464" xmlns="http://www.w3.org/2000/svg"><circle cx="231.9996" cy="231.9998" fill="#fb6a2a" r="228.535"/><path d="m393.484 166.079-91.863-159.1c-2.496-4.318-7.103-6.979-12.092-6.979h-183.716c-4.988 0-9.597 2.661-12.091 6.979l-91.852 159.1c-2.494 4.321-2.494 9.642 0 13.961l91.852 159.11c2.494 4.321 7.104 6.982 12.091 6.982h183.716c4.988 0 9.6-2.661 12.092-6.98l91.863-159.11c2.496-4.321 2.496-9.643 0-13.963zm-195.812 132.46c-69.298 0-125.472-56.179-125.472-125.475 0-69.304 56.174-125.472 125.472-125.472 57.287 0 105.578 38.403 120.608 90.863h-63.36l-16.412-28.429c-1.375-2.38-3.914-3.846-6.661-3.846h-68.349c-2.747 0-5.286 1.466-6.661 3.846l-34.17 59.19c-1.374 2.38-1.374 5.312 0 7.691l34.17 59.192c1.375 2.38 3.914 3.847 6.661 3.847h68.349c2.747 0 5.286-1.467 6.659-3.847l16.414-28.42h63.36c-15.034 52.454-63.323 90.86-120.608 90.86z" fill="#fff" fill-rule="nonzero" transform="translate(34.322 58.934)"/></svg>

<?xml version="1.0" encoding="UTF-8" standalone="no"?>
<!DOCTYPE svg PUBLIC "-//W3C//DTD SVG 1.1//EN" "http://www.w3.org/Graphics/SVG/1.1/DTD/svg11.dtd">
<svg width="100%" height="100%" viewBox="0 0 400 400" version="1.1" xmlns="http://www.w3.org/2000/svg" xmlns:xlink="http://www.w3.org/1999/xlink" xml:space="preserve" xmlns:serif="http://www.serif.com/" style="fill-rule:evenodd;clip-rule:evenodd;stroke-linejoin:round;stroke-miterlimit:1.41421;">
    <g transform="matrix(1,0,0,1,2.322,26.934)">
        <path d="M393.484,166.079L301.621,6.979C299.125,2.661 294.518,0 289.529,0L105.813,0C100.825,0 96.216,2.661 93.722,6.979L1.87,166.079C-0.624,170.4 -0.624,175.721 1.87,180.04L93.722,339.15C96.216,343.471 100.826,346.132 105.813,346.132L289.529,346.132C294.517,346.132 299.129,343.471 301.621,339.152L393.484,180.042C395.98,175.721 395.98,170.399 393.484,166.079ZM197.672,298.539C128.374,298.539 72.2,242.36 72.2,173.064C72.2,103.76 128.374,47.592 197.672,47.592C254.959,47.592 303.25,85.995 318.28,138.455L254.92,138.455L238.508,110.026C237.133,107.646 234.594,106.18 231.847,106.18L163.498,106.18C160.751,106.18 158.212,107.646 156.837,110.026L122.667,169.216C121.293,171.596 121.293,174.528 122.667,176.907L156.837,236.099C158.212,238.479 160.751,239.946 163.498,239.946L231.847,239.946C234.594,239.946 237.133,238.479 238.506,236.099L254.92,207.679L318.28,207.679C303.246,260.133 254.957,298.539 197.672,298.539Z" style="fill:rgb(236,87,36);fill-rule:nonzero;"/>
    </g>
</svg>
